flaticon/productivity-and-development/tag-1.svg

<svg xmlns="http://www.w3.org/2000/svg" width="32" height="32" viewBox="0 0 24 24">
    <path d="M 18.011719 3.59375 C 16.792969 3.59375 15.808594 4.582031 15.808594 5.796875 C 15.808594 7.011719 16.792969 7.996094 18.011719 7.996094 C 19.226562 7.996094 20.210938 7.011719 20.210938 5.796875 C 20.210938 4.582031 19.226562 3.59375 18.011719 3.59375 Z M 18.011719 6.976562 C 17.359375 6.976562 16.828125 6.449219 16.828125 5.796875 C 16.828125 5.144531 17.359375 4.613281 18.011719 4.613281 C 18.660156 4.613281 19.191406 5.144531 19.191406 5.796875 C 19.191406 6.449219 18.660156 6.976562 18.011719 6.976562 Z M 18.011719 6.976562"/>
    <path d="M 10.832031 24 C 10.15625 24 9.523438 23.738281 9.042969 23.257812 L 0.765625 14.980469 C -0.222656 13.992188 -0.222656 12.386719 0.765625 11.402344 L 9.664062 2.5 C 11.90625 0.164062 17.320312 -1.703125 21.523438 2.5 C 24.792969 5.769531 24.792969 11.089844 21.523438 14.359375 L 12.625 23.257812 C 12.144531 23.738281 11.507812 24 10.832031 24 Z M 10.386719 3.21875 L 1.484375 12.121094 C 0.894531 12.710938 0.894531 13.667969 1.484375 14.257812 L 9.765625 22.539062 C 10.335938 23.109375 11.332031 23.109375 11.902344 22.539062 L 20.804688 13.636719 C 23.675781 10.765625 23.675781 6.09375 20.804688 3.21875 C 18.800781 1.214844 14.039062 -0.433594 10.386719 3.21875 Z M 10.386719 3.21875"/>
    <path d="M7.347656 11.175781L8.152344 11.175781 8.152344 14.769531 7.347656 14.769531 5.636719 12.515625 5.636719 14.769531 4.835938 14.769531 4.835938 11.175781 5.585938 11.175781 7.347656 13.488281zM11.625 11.175781L11.625 11.890625 9.835938 11.890625 9.835938 12.628906 11.445312 12.628906 11.445312 13.3125 9.835938 13.3125 9.835938 14.058594 11.679688 14.058594 11.679688 14.769531 9.035156 14.769531 9.035156 11.175781zM13.515625 13.242188L14.152344 11.175781 14.988281 11.175781 15.621094 13.242188 16.335938 11.175781 17.203125 11.175781 15.953125 14.769531 15.355469 14.769531 14.570312 12.269531 13.789062 14.769531 13.191406 14.769531 11.9375 11.175781 12.804688 11.175781zM13.515625 13.242188"/>
</svg>

<svg xmlns="http://www.w3.org/2000/svg" width="32" height="32" viewBox="0 0 24 24">
    <path d="M18.012 3.594a2.203 2.203 0 0 0-2.203 2.203 2.2 2.2 0 0 0 2.203 2.2 2.202 2.202 0 0 0 0-4.402zm0 3.383a1.182 1.182 0 1 1-.004-2.364 1.182 1.182 0 0 1 .004 2.364zm0 0"/>
    <path d="M10.832 24a2.508 2.508 0 0 1-1.789-.742L.766 14.98a2.53 2.53 0 0 1 0-3.578L9.664 2.5c2.242-2.336 7.656-4.203 11.86 0 3.269 3.27 3.269 8.59 0 11.86l-8.899 8.898c-.48.48-1.117.742-1.793.742zm-.445-20.781L1.484 12.12c-.59.59-.59 1.547 0 2.137l8.282 8.281c.57.57 1.566.57 2.136 0l8.903-8.902c2.87-2.871 2.87-7.543 0-10.418-2.004-2.004-6.766-3.653-10.418 0zm0 0"/>
    <path d="M7.348 11.176h.804v3.594h-.804l-1.711-2.254v2.254h-.801v-3.594h.75l1.762 2.312zm0 0M11.625 11.176v.715h-1.79v.738h1.61v.684h-1.61v.746h1.845v.71H9.035v-3.593zm0 0M13.516 13.242l.636-2.066h.836l.633 2.066.715-2.066h.867l-1.25 3.594h-.598l-.785-2.5-.78 2.5h-.599l-1.254-3.594h.868zm0 0"/>
</svg>
